images/garn.svg

<svg width="96" height="96" viewBox="0 0 96 96" fill="none" xmlns="http://www.w3.org/2000/svg">
<path d="M76.3587 26.9383C76.3577 26.9325 76.3577 26.9259 76.3568 26.9201C76.3319 26.7969 76.287 26.6813 76.2326 26.5715C76.2192 26.5447 76.2049 26.5189 76.1896 26.4922C76.1275 26.3833 76.0559 26.2811 75.968 26.1923C75.967 26.1913 75.9661 26.1894 75.9651 26.1884L60.7159 10.9345C60.715 10.9335 60.714 10.9335 60.7131 10.9325C60.6242 10.8447 60.5211 10.773 60.4122 10.71C60.3864 10.6947 60.3606 10.6804 60.3338 10.667C60.224 10.6125 60.1094 10.5677 59.9861 10.5428C59.9785 10.5409 59.9718 10.5419 59.9642 10.5409C59.8792 10.5256 59.7922 10.5142 59.7024 10.5142H20.5679C19.776 10.5142 19.135 11.1561 19.135 11.947V83.5726C19.135 84.3635 19.776 85.0054 20.5679 85.0054H74.9516C75.7435 85.0054 76.3845 84.3635 76.3845 83.5726V27.2C76.3854 27.1121 76.3749 27.0243 76.3587 26.9383ZM61.1362 15.4087L71.4937 25.77H61.1362V15.4087ZM22.0017 82.1416V13.3817H58.2706V27.2029C58.2706 27.9938 58.9115 28.6357 59.7034 28.6357H73.5198V82.1426L22.0017 82.1416Z" fill="url(#paint0_linear_567_152)"/>
<path d="M46.1029 30.4688H28.1953C27.4035 30.4688 26.7625 31.1107 26.7625 31.9016C26.7625 32.6925 27.4035 33.3344 28.1953 33.3344H46.1029C46.8948 33.3344 47.5358 32.6925 47.5358 31.9016C47.5358 31.1107 46.8948 30.4688 46.1029 30.4688Z" fill="url(#paint1_linear_567_152)"/>
<path d="M46.1029 37.2671H28.1953C27.4035 37.2671 26.7625 37.909 26.7625 38.6999C26.7625 39.4908 27.4035 40.1328 28.1953 40.1328H46.1029C46.8948 40.1328 47.5358 39.4908 47.5358 38.6999C47.5358 37.909 46.8948 37.2671 46.1029 37.2671Z" fill="url(#paint2_linear_567_152)"/>
<path d="M46.1029 44.0664H28.1953C27.4035 44.0664 26.7625 44.7083 26.7625 45.4992C26.7625 46.2902 27.4035 46.9321 28.1953 46.9321H46.1029C46.8948 46.9321 47.5358 46.2902 47.5358 45.4992C47.5358 44.7083 46.8948 44.0664 46.1029 44.0664Z" fill="url(#paint3_linear_567_152)"/>
<path d="M60.1313 59.6232C55.4995 59.6232 51.7321 63.3887 51.7321 68.0186C51.7321 72.6496 55.5004 76.416 60.1313 76.416C64.7623 76.416 68.5297 72.6496 68.5297 68.0186C68.5297 63.3887 64.7623 59.6232 60.1313 59.6232ZM60.1313 73.5503C57.0804 73.5503 54.5977 71.0687 54.5977 68.0186C54.5977 64.9696 57.0804 62.4888 60.1313 62.4888C63.1814 62.4888 65.664 64.9696 65.664 68.0186C65.664 71.0696 63.1823 73.5503 60.1313 73.5503Z" fill="url(#paint4_linear_567_152)"/>
<defs>
<linearGradient id="paint0_linear_567_152" x1="55.8368" y1="24.1831" x2="33.1348" y2="67.1733" gradientUnits="userSpaceOnUse">
<stop offset="0.1177" stop-color="#7ACA37"/>
<stop offset="0.2561" stop-color="#70C53A"/>
<stop offset="0.4886" stop-color="#56B641"/>
<stop offset="0.7848" stop-color="#2C9F4E"/>
<stop offset="1" stop-color="#098C58"/>
</linearGradient>
<linearGradient id="paint1_linear_567_152" x1="40.0799" y1="30.9946" x2="39.9619" y2="33.103" gradientUnits="userSpaceOnUse">
<stop offset="0.1177" stop-color="#7ACA37"/>
<stop offset="0.2561" stop-color="#70C53A"/>
<stop offset="0.4886" stop-color="#56B641"/>
<stop offset="0.7848" stop-color="#2C9F4E"/>
<stop offset="1" stop-color="#098C58"/>
</linearGradient>
<linearGradient id="paint2_linear_567_152" x1="40.0799" y1="37.7929" x2="39.9619" y2="39.9013" gradientUnits="userSpaceOnUse">
<stop offset="0.1177" stop-color="#7ACA37"/>
<stop offset="0.2561" stop-color="#70C53A"/>
<stop offset="0.4886" stop-color="#56B641"/>
<stop offset="0.7848" stop-color="#2C9F4E"/>
<stop offset="1" stop-color="#098C58"/>
</linearGradient>
<linearGradient id="paint3_linear_567_152" x1="40.0799" y1="44.5923" x2="39.9619" y2="46.7007" gradientUnits="userSpaceOnUse">
<stop offset="0.1177" stop-color="#7ACA37"/>
<stop offset="0.2561" stop-color="#70C53A"/>
<stop offset="0.4886" stop-color="#56B641"/>
<stop offset="0.7848" stop-color="#2C9F4E"/>
<stop offset="1" stop-color="#098C58"/>
</linearGradient>
<linearGradient id="paint4_linear_567_152" x1="62.5007" y1="62.7046" x2="58.1829" y2="73.3467" gradientUnits="userSpaceOnUse">
<stop offset="0.1177" stop-color="#7ACA37"/>
<stop offset="0.2561" stop-color="#70C53A"/>
<stop offset="0.4886" stop-color="#56B641"/>
<stop offset="0.7848" stop-color="#2C9F4E"/>
<stop offset="1" stop-color="#098C58"/>
</linearGradient>
</defs>
</svg>

<svg width="96" height="96" fill="none" xmlns="http://www.w3.org/2000/svg"><path d="m76.359 26.938-.002-.018a1.42 1.42 0 0 0-.167-.428 1.424 1.424 0 0 0-.222-.3l-.003-.004-15.25-15.253c0-.002-.001-.002-.002-.003a1.472 1.472 0 0 0-.38-.265c-.109-.054-.224-.1-.347-.124-.008-.002-.014-.001-.022-.002a1.472 1.472 0 0 0-.262-.027H20.568c-.792 0-1.433.642-1.433 1.433v71.626c0 .79.641 1.432 1.433 1.432h54.384c.791 0 1.433-.641 1.433-1.432V27.2c0-.088-.01-.176-.026-.262Zm-15.223-11.53L71.494 25.77H61.136V15.409ZM22.002 82.143v-68.76H58.27v13.82c0 .792.64 1.434 1.432 1.434H73.52v53.507l-51.518-.001Z" fill="url(#a)"/><path d="M46.103 30.469H28.195a1.433 1.433 0 1 0 0 2.865h17.908a1.433 1.433 0 1 0 0-2.865Z" fill="url(#b)"/><path d="M46.103 37.267H28.195a1.433 1.433 0 1 0 0 2.866h17.908a1.433 1.433 0 1 0 0-2.866Z" fill="url(#c)"/><path d="M46.103 44.066H28.195a1.433 1.433 0 1 0 0 2.866h17.908a1.433 1.433 0 1 0 0-2.866Z" fill="url(#d)"/><path d="M60.131 59.623c-4.632 0-8.399 3.766-8.399 8.396 0 4.63 3.768 8.397 8.4 8.397 4.63 0 8.398-3.766 8.398-8.397 0-4.63-3.768-8.396-8.399-8.396Zm0 13.927a5.54 5.54 0 0 1-5.533-5.531 5.538 5.538 0 0 1 5.533-5.53c3.05 0 5.533 2.48 5.533 5.53a5.538 5.538 0 0 1-5.533 5.531Z" fill="url(#e)"/><defs><linearGradient id="a" x1="55.837" y1="24.183" x2="33.135" y2="67.173" gradientUnits="userSpaceOnUse"><stop offset=".118" stop-color="#7ACA37"/><stop offset=".256" stop-color="#70C53A"/><stop offset=".489" stop-color="#56B641"/><stop offset=".785" stop-color="#2C9F4E"/><stop offset="1" stop-color="#098C58"/></linearGradient><linearGradient id="b" x1="40.08" y1="30.995" x2="39.962" y2="33.103" gradientUnits="userSpaceOnUse"><stop offset=".118" stop-color="#7ACA37"/><stop offset=".256" stop-color="#70C53A"/><stop offset=".489" stop-color="#56B641"/><stop offset=".785" stop-color="#2C9F4E"/><stop offset="1" stop-color="#098C58"/></linearGradient><linearGradient id="c" x1="40.08" y1="37.793" x2="39.962" y2="39.901" gradientUnits="userSpaceOnUse"><stop offset=".118" stop-color="#7ACA37"/><stop offset=".256" stop-color="#70C53A"/><stop offset=".489" stop-color="#56B641"/><stop offset=".785" stop-color="#2C9F4E"/><stop offset="1" stop-color="#098C58"/></linearGradient><linearGradient id="d" x1="40.08" y1="44.592" x2="39.962" y2="46.701" gradientUnits="userSpaceOnUse"><stop offset=".118" stop-color="#7ACA37"/><stop offset=".256" stop-color="#70C53A"/><stop offset=".489" stop-color="#56B641"/><stop offset=".785" stop-color="#2C9F4E"/><stop offset="1" stop-color="#098C58"/></linearGradient><linearGradient id="e" x1="62.501" y1="62.705" x2="58.183" y2="73.347" gradientUnits="userSpaceOnUse"><stop offset=".118" stop-color="#7ACA37"/><stop offset=".256" stop-color="#70C53A"/><stop offset=".489" stop-color="#56B641"/><stop offset=".785" stop-color="#2C9F4E"/><stop offset="1" stop-color="#098C58"/></linearGradient></defs></svg>
